!!!COM: Palestrina, Giovanni Perluigi da
!!!OPR: Missa In majoribus duplicibus
!!!OMD: Sanctus
!!!OTL: Hosanna
**kern	**kern	**kern	**kern
*Ibass	*Itenor	*Icalto	*Icant
!Bassus	!Tenor	!Altus	!Cantus
*clefF4	*clefGv2	*clefG2	*clefG2
*k[]	*k[]	*k[]	*k[]
*?:X	*?:X	*?:X	*?:X
*M3/2	*M3/2	*M3/2	*M3/2
=66	=66	=66	=66
1r	1r	2f	1r
.	.	2a	.
2r	2r	2g	2r
=67	=67	=67	=67
1r	1r	1cc	2f
.	.	.	2a
2r	2r	2b-	2g
=68	=68	=68	=68
1r	1r	1a	1cc
2r	2r	2g	2b-
=69	=69	=69	=69
1r	1r	2a	2a
.	.	2.b-	2.g
2r	2r	.	.
.	.	4a	4a
=70	=70	=70	=70
1r	1r	1g	2b-
.	.	.	1a
2r	2r	2f#	.
=71	=71	=71	=71
1r	2c	2g	1.g
.	2e	2c	.
2r	2d	2B	.
=72	=72	=72	=72
2C	1g	2c	1r
2E	.	2G	.
2D	2f	2A	2r
=73	=73	=73	=73
1G	2e	1B-	1r
.	1d	.	.
2F	.	2A	2r
=74	=74	=74	=74
2E	2e	2c	1r
2.D	2.f	2B-	.
.	.	[2A	2r
4E	4e	.	.
=75	=75	=75	=75
2F	1d	2A]	1r
1E	.	1G	.
.	2c#	.	2r
=76	=76	=76	=76
1D	1d	2A	2f
.	.	2f	2a
2r	2r	2e	2g
=77	=77	=77	=77
2F	1r	2a	1cc
2A	.	2f	.
2G	2r	2g	2b-
=78	=78	=78	=78
1c	2c	2e	2a
.	2e	2r	1g
2B-	2d	2r	.
=79	=79	=79	=79
2A	2f	1r	2a
2.G	2e	.	2.b-
.	[2d	2r	.
4A	.	.	4a
=80	=80	=80	=80
2B-	2d]	2r	1g
1A	1c	2r	.
.	.	2c	2f#
=81	=81	=81	=81
1G	2r	2e	2g
.	2B	2d	2dd
2r	2c	[2g	2ee
=82	=82	=82	=82
1r	2G	2g]	1dd
.	2B-	2f	.
2r	2c	2e	2gg
=83	=83	=83	=83
1r	2d	2.d	2.ff
.	1B-	.	.
.	.	4e	4ee
2r	.	2f	2dd
=84	=84	=84	=84
1r	2c	2e	1cc
.	1G	1d	.
2r	.	.	2b-
=85	=85	=85	=85
2F	1c	2f	4a
.	.	.	4b-
2A	.	2e	4cc
.	.	.	4a
2G	2r	2g	2b-
=86	=86	=86	=86
1c	2F	2a	2cc
.	2A	2r	2r
2B-	2G	2r	2r
=87	=87	=87	=87
2A	1c	2f	1r
2F	.	2a	.
2G	2B-	2g	2r
=88	=88	=88	=88
1F	2A	1cc	2f
.	2F	.	2a
2r	2G	2b-	2g
=89	=89	=89	=89
1F	1A	1a	1cc
2G	2B-	2g	2b-
=90	=90	=90	=90
2F	2c	2a	2a
2G	2B-	2.b-	2.g
[2E-	[2G	.	.
.	.	4a	4a
=91	=91	=91	=91
2E-]	2G]	1g	4b-
.	.	.	4cc
1D	1A	.	1dd
.	.	2f#	.
=92	=92	=92	=92
1.G	1.G	1.g	1.b
==	==	==	==
*-	*-	*-	*-
!!!CDT: 1525/^1526/-1594/2/2
!!!OCY: Italia
!!!AGN: Mass (Paraphrase)
!!!AST: renaissance, vocal
!!!ASW: Gregorian Mass
!!!PWK: Masses, Book 7
!!!RNB: Cadence finals: E,C,G,D,F
!!!YOR: Le Opere Complete, v. 23, p. 149
!!!YOO: Rome, Italy: Fratelli Scalera
!!!END: 1992//
!!!EED: John Miller
!!!YEC: Copyright 2000, John Miller
!!!YEN: United States of America
!!!YEM: Rights to all derivative electronic formats reserved.
!!!YEM: Refer to licensing agreement for further details.
!!!YEM: This file must be accompanied by the licensing agreement.
!!!YEM: A copy of the licensing agreement may be found at http://www.music-cog.ohio-state.edu/HumdrumDatabases/Palestrina/license.txt
!!!EMD: converted to Humdrum by Bret Aarden
